**kern	**kern
*part1	*part1
*staff2	*staff1
*I"Piano	*
*clefF4	*clefG2
*k[b-e-a-]	*k[b-e-a-]
=1	=1
*^	*
8E-L	4.EE-]	(4a- 4cc 4ff
8BB-	.	.
8E-J)	.	8cc) 8ff 8aa-
=	=	=
(8BB-L	[4.EE-	(4b- 4ee- 4gg
8E-	.	.
8BB-J	.	8g 8b- 8ee-
=	=	=
8E-L	4.EE-]	4.b-) 4.dd 4.ff
8BB-	.	.
8E-J)	.	.
=	=	=
*	*	*^
(8BB-L	[4.EE-	32eee-LLL	(8gg'L 8bb-
.	.	32fffJ	.
.	.	16eee-JJ	.
8E-	.	8aaa-L	8ccc' 8eee-
8BB-J	.	8fffJ	8aa-'J 8ddd
=	=	=	=
8E-L	4.EE-]	4.ggg	4.bb-') 4.eee-
8BB-	.	.	.
8E-J)	.	.	.
=	=	=	=
(8BB-L	[4.EE-	32eee-LLL	(8gg'L 8bb-
.	.	32fffJ	.
.	.	16eee-JJ	.
8E-	.	8aaa-L	8ccc' 8eee-
8BB-J	.	8fffJ	8aa-'J 8ddd
=	=	=	=
8E-L	4.EE-]	4.ggg	4.bb-') 4.eee-
8BB-	.	.	.
8E-J)	.	.	.
*	*	*v	*v
=	=	=
(8BB-L	[4.EE-	(4aa- 4ccc 4fff
8E-	.	.
8BB-J	.	8ccc) 8fff 8aaa-
*v	*v	*
=	=
*-	*-
!!!system-decoration: {(s1,s2)}
